icons/split-geometry-24.svg

<svg xmlns="http://www.w3.org/2000/svg" viewBox="0 0 24 24"><path d="M24 6v13H14v-1h9V7h-9V6zM11 18H2V7h9V6H1v13h10zm2 3h1v3h-3v-3h1V4h-1V1h3v3h-1zM12 3h1V2h-1zm1 19h-1v1h1z"/><path fill="none" d="M0 0h24v24H0z"/></svg>

<svg id="icons" xmlns="http://www.w3.org/2000/svg" viewBox="0 0 24 24"><defs><style>.cls-1{fill:none;}</style></defs><path d="M24,6V19H14V18h9V7H14V6ZM11,18H2V7h9V6H1V19H11Zm2,3h1v3H11V21h1V4H11V1h3V4H13ZM12,3h1V2H12Zm1,19H12v1h1Z"/><rect class="cls-1" width="24" height="24"/></svg>
